X:1
T:P1_No.2
T:Book1_P1_No.2
L:1/8
Q:1/4=80
M:4/4
K:C
V:1 bass nm="大提琴" snm="Vc."
V:1
 C4 G,2 E,2 | F,4 A,4 | D4 B,2 F,2 | E,4 G,4 | C2 B,2 A,2 G,2 | F,2 E,2 D,2 E,2 | F,2 G,2 A,2 D2 | %7
 C4 B,4 | D2 B,2 G,2 F,2 | E,2 G,2 C4 | D2 B,2 G,2 F,2 | E,2 F,2 G,4 | E,2 F,2 G,2 A,2 | %13
 B,2 C2 D2 C2 | A,2 C2 B,2 D2 | D4 C4 |] %16

